icon-themes/breeze_svg/cmd/lc_sidebar.svg

<svg viewBox="0 0 24 24" xmlns="http://www.w3.org/2000/svg"><path d="m4 4v16h10v-1h-9v-14h9v-1zm11 0v11h1v-10h3v10h1v-11zm2 11v2h-2v1h2v2h1v-2h2v-1h-2v-2z" fill="#4d4d4d"/></svg>

<svg viewBox="0 0 24 24" xmlns="http://www.w3.org/2000/svg">
  <path
     style="fill:#4d4d4d"
     d="M 4 4 L 4 20 L 14 20 L 14 19 L 5 19 L 5 5 L 14 5 L 14 4 L 4 4 z M 15 4 L 15 15 L 16 15 L 16 5 L 19 5 L 19 15 L 20 15 L 20 4 L 15 4 z M 17 15 L 17 17 L 15 17 L 15 18 L 17 18 L 17 20 L 18 20 L 18 18 L 20 18 L 20 17 L 18 17 L 18 15 L 17 15 z " />
</svg>
